X: 4
T: The Reel With The Birl
R: reel
M: 4/4
L: 1/8
K: Edor
E2BE DEBE|E2BE AFDF|E2BE dEBE|eBdB AFDF| E2BE DEBE|E2BE AFDF|GBAF G3B|1dedB AFDF:|2d3B A4||BA(3Bcd e4|fdd2 ed(3Bcd |g2gf g2eg|faab afef|g2bg faaf|edfe edBA|GBAF GABc|1dedB A3B:|2d3B AFDF||


Tune 189	Setting 12838

